.local/share/icons/Gruvbox-Plus-Dark/status/symbolic/display-brightness-low-symbolic.svg

<svg width="16" height="16" version="1.1" xmlns="http://www.w3.org/2000/svg">
  <defs>
    <style id="current-color-scheme" type="text/css">.ColorScheme-Text { color:#ebdbb2; } .ColorScheme-Highlight { color:#458588; } .ColorScheme-NeutralText { color:#fe8019; } .ColorScheme-PositiveText { color:#689d6a; } .ColorScheme-NegativeText { color:#fb4934; }</style>
  </defs>
  <path class="ColorScheme-Text" d="m8 0.721-2.189 2.279h-2.81v2.81l-2.279 2.189 2.279 2.221v2.779h2.81l2.189 2.279 2.221-2.279h2.779v-2.779l2.279-2.221-2.279-2v-3h-2.779zm0 3.279c2.21 0 4 1.79 4 4 0 2.21-1.79 4-4 4-2.21 0-4-1.79-4-4 0-2.21 1.79-4 4-4z" fill="currentColor" opacity=".3"/>
  <path class="ColorScheme-Text" d="m5 8c0-1.658 1.335-3 3-3v6c-1.665 0-3-1.342-3-3z" fill="currentColor"/>
</svg>

<svg xmlns="http://www.w3.org/2000/svg" width="16" height="16" version="1.1">
 <path style="fill:#ebdbb2" d="M 8,5 C 6.34,5 5,6.34 5,8 5,9.66 6.34,11 8,11 Z"/>
 <path style="fill:#ebdbb2;opacity:0.3" d="M 8 0.7207 L 5.8105 3 L 3 3 L 3 5.8105 L 0.7207 8 L 3 10.221 L 3 13 L 5.8105 13 L 8 15.279 L 10.221 13 L 13 13 L 13 10.221 L 15.279 8 L 13 6 L 13 3 L 10.221 3 L 8 0.7207 z M 8 4 C 10.21 4 12 5.79 12 8 C 12 10.21 10.21 12 8 12 C 5.79 12 4 10.21 4 8 C 4 5.79 5.79 4 8 4 z"/>
</svg>
